!!!COM: Corelli, Arcangelo
!!!OPR: Sonata da camera
!!!OPS: 4
!!!ONM: 9
!!!OMV: 1
!!!OTL: Preludio
!!!OMD: Largo
**kern	**harm	**fb	**kern	**kern
*part3	*above	*part3	*part2	*part1
*staff3	*	*	*staff2	*staff1
*I"Violone & Cembalo	*	*	*I"Violino II	*I"Violino I
*clefF4	*	*	*clefG2	*clefG2
*k[b-]	*	*	*k[b-]	*k[b-]
*B-:	*	*	*B-:	*B-:
*M4/4	*	*	*M4/4	*M4/4
*met(c)	*	*	*met(c)	*met(c)
*MM56	*	*	*MM56	*MM56
=1	=1	=1	=1	=1
8BB-L	Bb.I{	.	16r	4dd
.	.	.	16ddLL	.
8B-	.	.	16ff	.
.	.	.	16ddJJ	.
8A	V6	6	4cc	16r
.	.	.	.	16ccLL
8FJ	V	.	.	16ff
.	.	.	.	16ccJJ
8r	.	.	16r	4dd
.	.	.	16ddLL	.
8B-L	.	.	16ff	.
.	.	.	16b-JJ	.
8A	V6	6	4cc	16r
.	.	.	.	16ccLL
8FJ	V	.	.	16ff
.	.	.	.	16aJJ
=2	=2	=2	=2	=2
8r	.	.	16r	4b-
.	.	.	16b-LL	.
8GL	.	.	16dd	.
.	.	.	16b-JJ	.
8F	iii6	6	4a	16r
.	.	.	.	16aLL
8DJ	iii	.	.	16dd
.	.	.	.	16fJJ
8r	.	.	16r	4g
.	.	.	16gLL	.
8E-XL	.	.	16b-	.
.	.	.	16gJJ	.
8D	I6	6	4f	16r
.	.	.	.	16ffLL
8BB-J	I	.	.	16dd
.	.	.	.	16b-JJ
=3	=3	=3	=3	=3
8r	.	.	16r	4gg
.	.	.	16b-LL	.
8E-XL	.	.	16ee-X	.
.	.	.	16ggJJ	.
8F	V	.	4cc	16r
.	.	.	.	16aLL
8FFJ	.	.	.	16cc
.	.	.	.	16ffJJ
8r	.	.	16r	4dd
.	.	.	16ddLL	.
8B-L	.	.	16ff	.
.	.	.	16b-JJ	.
8A	V6	6	4cc	16r
.	.	.	.	16ccLL
8FJ	V	.	.	16ff
.	.	.	.	16ccJJ
=4	=4	=4	=4	=4
*F:	*	*	*F:	*F:
8r	.	.	16r	4dd
.	.	.	16ffLL	.
8B-L	.	.	16bb-	.
.	.	.	16ddJJ	.
8c	V	.	4eeni	16r
.	.	.	.	16ggLL
8CJ	.	.	.	16ccc
.	.	.	.	16ggJJ
8r	.	.	16r	4aa
.	.	.	16ccLL	.
8FL	vi6	.	16dd	.
.	.	.	16fJJ	.
8Eni	V6	6	4g	16r
.	.	.	.	16ccLL
8CJ	V	.	.	16dd
.	.	.	.	16ccJJ
=5	=5	=5	=5	=5
8r	.	.	16r	4b-
.	.	.	16fLL	.
8DL	.	6	16g	.
.	.	.	16fJJ	.
8C	iii6	6	4e	16r
.	.	.	.	16aLL
8AAJ	iii	.	.	16b-
.	.	.	.	16aJJ
8r	.	.	16r	4g
.	.	.	16ddLL	.
8BB-L	.	6	16ee	.
.	.	.	16ddJJ	.
8AA	I6	6	16ccLL	16r
.	.	.	16f	16aLL
8FFJ	I	.	16a	16cc
.	.	.	16ccJJ	16ffJJ
=6	=6	=6	=6	=6
8r	.	.	(16dLL	(16ddLL
.	.	.	16eJ)	16cc)
8BB-L	.	.	8fJ	(16b-
.	.	.	.	16aJJ)
8C	V(4)	5 4	8.fL	4g
8CCJ	V	3	.	.
.	.	.	16eJk	.
2FF	I|PAC}	.	2f	2f
=7:|!|:	=7:|!|:	=7:|!|:	=7:|!|:	=7:|!|:
8FL	.	.	16r	4a
.	.	.	16ffLL	.
8f	.	.	16aa	.
.	.	.	16ffJJ	.
8e	V6	6	4ccc	16r
.	.	.	.	16ggLL
8cJ	V	.	.	16ccc
.	.	.	.	16ggJJ
8r	.	.	16r	4aa
.	.	.	16ffLL	.
8fL	.	.	16aa	.
.	.	.	16ffJJ	.
8e	V6	6	4ccc	16r
.	.	.	.	16ggLL
8cJ	V	.	.	16ccc
.	.	.	.	16ggJJ
=8	=8	=8	=8	=8
*d:	*	*	*d:	*d:
8r	.	.	16r	4aa
.	.	.	16ffLL	.
8dL	.	.	16aa	.
.	.	.	16ffJJ	.
8c#X	V6	6	4ee	16r
.	.	.	.	16aaLL
8AJ	V	.	.	16ee
.	.	.	.	16aaJJ
8r	.	.	16r	4ff
.	.	.	16ffLL	.
8dL	.	.	16aa	.
.	.	.	16ffJJ	.
8c#	V6	6	4ee	16r
.	.	.	.	16aaLL
8AJ	V	.	.	16ee
.	.	.	.	16aaJJ
=9	=9	=9	=9	=9
8r	.	.	16r	4ff
.	.	.	16aaLL	.
8FL	.	6	16ff	.
.	.	.	16ddJJ	.
8G	iv	.	4bb-	16r
.	.	.	.	16ddLL
8GGJ	.	.	.	16gg
.	.	.	.	16bb-JJ
8r	.	.	16r	8cc#XL
.	.	.	16aaLL	.
8DL	i	.	16gg	8ddJ
.	.	.	16ffJJ	.
8A	V(4)	5 4	8.eeL	8.ddL
8AAJ	V	#	.	.
.	.	.	16eeJk	16cc#Jk
=10	=10	=10	=10	=10
8r	.	.	16ddLL	8ddL
.	.	.	16aa	.
8dL	.	.	16ff	8.ff
.	.	.	16ddJJ	.
*c:	*	*	*c:	*c:
8Bn	I.V65/ii	6 5	4gg	.
.	.	.	.	16ffL
8GJ	V/ii	.	.	16ee-X
.	.	.	.	16ddJJ
8r	.	.	16r	[4ee-
.	.	.	16ggLL	.
8cL	.	-	16ee-X	.
.	.	.	16ccJJ	.
*B-:	*	*	*B-:	*B-:
8A	V65	6 5	4ff	16ee-LL]
.	.	.	.	16ee-
8FJ	V	.	.	16dd
.	.	.	.	16ccniJJ
=11	=11	=11	=11	=11
8r	.	.	16r	4dd
.	.	.	16ffLL	.
8B-XiL	.	.	16dd	.
.	.	.	16b-JJ	.
8e-X	ii6(2)	7	16ggLL	16r
.	.	.	16ff	16ddLL
8E-XJ	ii6	6	16ee-X	16cc
.	.	.	16ddJJ	16b-JJ
8r	.	.	16ccLL	4a
.	.	.	16ff	.
8DL	I6	6	16bb-	.
.	.	.	16ffJJ	.
8E-	IV	.	16ggLL	16r
.	.	.	16b-J	16ggLL
8CJ	ii	-	[8ee-J	16ccc
.	.	.	.	16ggJJ
=12	=12	=12	=12	=12
8FL	V7	-7	8ee-L]	16aaLL
.	.	.	.	16ff
8BB-	I	.	8ddJ	16bb-
.	.	.	.	16b-JJ
8F	V(4)	5 4	4cc	8.b-L
8FFJ	V	3	.	.
.	.	.	.	16aJk
8r	.	.	16b-LL	4b-
.	.	.	16ff	.
8DL	I6	6	16bb-	.
.	.	.	16ffJJ	.
8E-X	IV	.	16ggLL	16r
.	.	.	16b-J	16ggLL
8CJ	ii	-	[8ee-XJ	16ccc
.	.	.	.	16ggJJ
=13	=13	=13	=13	=13
8FL	V7	-7	8ee-L]	16aaLL
.	.	.	.	16ff
8BB-	I	.	8ddJ	16bb-
.	.	.	.	16b-JJ
8F	V(4)	5 4	4cc	8.b-L
8FFJ	V	3	.	.
.	.	.	.	16aJk
2BB-	I|PAC}	.	2b-	2b-
=:|!	=:|!	=:|!	=:|!	=:|!
*-	*-	*-	*-	*-
!!!system-decoration: [{s1,s2},s3]
!!!YEM: CC BY-NC-SA 4.0; CCARH; DCML
!!!RDF**kern: i = editorial accidental